X:1
T:erhuangyuanban(1)
M:2/4
L:1/16
K:F
z6 CD|F2 GA GF D2|CDC2-C2DF|G2 c2 AGED|C2A2 GFDF|C2G2 AGED|CDGA EDCD|F2 GA GF D2|CDC2-C2 z2|
